public/build/img/sistema/panelcompras-bl.svg

<svg width="40" height="40" viewBox="0 0 40 40" fill="none" xmlns="http://www.w3.org/2000/svg">
<path d="M36.675 23.5405L39.9578 7.29055C40.1949 6.11727 39.4022 5 38.3326 5H11.0561L10.4196 1.49922C10.261 0.626641 9.57847 0 8.78674 0H1.66667C0.746181 0 0 0.839453 0 1.875V3.125C0 4.16055 0.746181 5 1.66667 5H6.51965L11.398 31.8309C10.2309 32.5859 9.44444 34.0017 9.44444 35.625C9.44444 38.0412 11.1856 40 13.3333 40C15.4811 40 17.2222 38.0412 17.2222 35.625C17.2222 34.4005 16.7745 33.2941 16.0539 32.5H30.6127C29.8922 33.2941 29.4444 34.4005 29.4444 35.625C29.4444 38.0412 31.1856 40 33.3333 40C35.4811 40 37.2222 38.0412 37.2222 35.625C37.2222 33.8928 36.3272 32.3959 35.0292 31.6871L35.4124 29.7905C35.6494 28.6173 34.8567 27.5 33.7872 27.5H15.147L14.6925 25H35.0498C35.828 25 36.5026 24.3942 36.675 23.5405Z" fill="white"/>
</svg>

<svg width="40" height="40" fill="none" xmlns="http://www.w3.org/2000/svg"><path d="M36.675 23.54l3.283-16.25C40.195 6.118 39.402 5 38.333 5H11.056l-.636-3.5C10.26.626 9.578 0 8.787 0h-7.12C.747 0 0 .84 0 1.875v1.25C0 4.161.746 5 1.667 5H6.52l4.878 26.83c-1.167.756-1.954 2.172-1.954 3.795 0 2.416 1.742 4.375 3.89 4.375 2.147 0 3.888-1.959 3.888-4.375 0-1.224-.448-2.33-1.168-3.125h14.559c-.72.794-1.169 1.9-1.169 3.125 0 2.416 1.742 4.375 3.89 4.375 2.147 0 3.888-1.959 3.888-4.375 0-1.732-.895-3.23-2.193-3.938l.383-1.896c.237-1.174-.555-2.291-1.625-2.291h-18.64l-.454-2.5H35.05c.778 0 1.453-.606 1.625-1.46z" fill="#fff"/></svg>
